icons/folder-open-line.svg

<svg viewBox="0 0 24 24" fill="currentColor" xmlns="http://www.w3.org/2000/svg">
    <path d="M3 21C2.44772 21 2 20.5523 2 20V4C2 3.44772 2.44772 3 3 3H10.4142L12.4142 5H20C20.5523 5 21 5.44772 21 6V9H19V7H11.5858L9.58579 5H4V16.998L5.5 11H22.5L20.1894 20.2425C20.0781 20.6877 19.6781 21 19.2192 21H3ZM19.9384 13H7.06155L5.56155 19H18.4384L19.9384 13Z"/>
</svg>

<svg xmlns="http://www.w3.org/2000/svg" viewBox="0 0 24 24">
    <g>
        <path fill="none" d="M0 0h24v24H0z"/>
        <path d="M3 21a1 1 0 0 1-1-1V4a1 1 0 0 1 1-1h7.414l2 2H20a1 1 0 0 1 1 1v3h-2V7h-7.414l-2-2H4v11.998L5.5 11h17l-2.31 9.243a1 1 0 0 1-.97.757H3zm16.938-8H7.062l-1.5 6h12.876l1.5-6z"/>
    </g>
</svg>
